X:1
T:Paysan Allemande. TWC.245, La
T:Paysan Allemande. TWC.245, La
T:French
C:French
L:1/8
Q:1/4=100
M:2/4
K:C
V:1 treble 
V:1
 GGcc | d/e/f/g/ ec | d/e/f/g/ ec | d/c/B/A/ G2 | GGcc | d/e/f/g/ ec | GGcc | d/c/d/e/ c2 || %8
 d^cdd | ef G2 | cB/c/ ec | d/c/B/A/ G2 | GGcc | A/B/c/A/ dd | B/c/d/B/ ee | f/e/d/c/ G2!D.C.! |] %16

